X:1
T:Title
%%score { ( 1 4 ) | ( 2 3 ) }
L:1/8
M:6/4
K:Bb
V:1 treble nm="Grand Piano"
V:4 treble 
V:2 bass 
V:3 bass 
V:1
 z6 z4[Q:1/4=168] F2 | [DB]4 [DG]2 [DA]3 G F2 | c4 d2 [DB]4 [FB]2 | [EG]3 G G2 B2 A2 G2 | %4
[M:5/4] [_DG]4 F2 F4 |[M:1/4] F2 |[M:6/4] [Fd]4 d2 B3 c d2 | [Ge]4 G2 G4 B2 | F6 c6 | [DB]12 | %10
 [Fd]6 .[F,A,Ec]6 | B2- [FB-]2 [EB]2 z4 B,2 | [DF]2 [DG]2 [DA]2 [DB]4 [DG]2 | [EA]12 | %14
 e6[K:bass][K:treble] c6 | [Fd]6 [DB]6 | [B,=EG]2 [CEA]2 [DEB]2 [Ed]2 [Ec]2 G2 | c6 _d6 | %18
 [Fd]6 .[F,A,Ec]6 | B6 z6 | B2 [FB]2 [GB]2 [Gc]2 [GB]2 [Gc]2 | [^Fd]12 | [Ge]6 c6 | %23
[M:15/8] [Ff]6 z3 z6 | %24
[M:6/4] [Gc]2 [Gd]2 [Ge]2 d2 F2 c2[Q:1/4=166][Q:1/4=163][Q:1/4=161][Q:1/4=158][Q:1/4=156][Q:1/4=153][Q:1/4=151][Q:1/4=148] | %25
[M:5/4] B2- B2- B6[Q:1/4=146][Q:1/4=143][Q:1/4=141][Q:1/4=138][Q:1/4=136][Q:1/4=133][Q:1/4=131][Q:1/4=128] |] %26
V:2
 z6 z4 D2 | [B,,B,]6 z2 z D D2 | E4 F2 B,,4 D,2 | z2 z[K:treble] E E2 G2 F2 E2 | %4
[M:5/4][K:bass] z4 D2 D4 |[M:1/4] D2 |[M:6/4] z4[K:treble] F2 D3 E F2 | z4 E2 E4 [=E,G,_D]2 | %8
 [F,B,D]6 [F,,F,A,E]6 | z2 A,2 G,2 F,6 | B,2 F,2 G,2 z2 G,2 F,2 | z2 A,2 G,2 .[F,D]6 | %12
 [B,,B,]2 [B,,B,]2 [B,,B,]2 [B,,F,]4 [=B,,F,]2 | [C,F,]6 [F,,F,]6 | .[F,A,F]6 [F,F]6 | %15
 B,2 A,2 G,2 F,6 | C,2 C,2 C,2 [C,C]2 [C,G,]2 [=E,B,]2 | [F,A,F]12 | B,2 F,2 G,2 z2 G,2 F,2 | %19
 z2 A,2 G,2 [F,D]4 [D,B,]2 | [E,G,E]2 [E,A,]2 [E,B,]2 [E,B,]2 [E,B,]2 [E,G,]2 | [D,A,]12 | %22
 .[C,C]6 .[E,CE]6 |[M:15/8] .F,3 z3 [G,B,D]3- [G,B,D]6 | %24
[M:6/4] [E,B,]2 [D,=B,]2 [C,C]2 [F,_B,F]2 [F,B,D]2 [F,A,E]2 |[M:5/4] z2 A,2 G,2 F,4 |] %26
V:3
 x12 | z6 [B,,B,]6 | [F,A,]6 z6 | [E,B,]12[K:treble] | %4
[M:5/4][K:bass] [B,,B,]2- [B,,B,]2- [B,,B,]6 |[M:1/4] x2 |[M:6/4] [B,,B,]12[K:treble] | [E,B,]12 | %8
 x12 | B,,12 | B,,6 F,,6 | B,,12 | x12 | x12 | x12 | B,,12 | x12 | x12 | B,,6 F,,6 | B,,12 | x12 | %21
 x12 | x12 |[M:15/8] D,6 z3 z6 |[M:6/4] x12 |[M:5/4] B,,2- B,,2- B,,6 |] %26
V:4
 x12 | x12 | z6 B,6 | x12 |[M:5/4] x10 |[M:1/4] x2 |[M:6/4] x12 | x12 | x12 | .B,6 z6 | x12 | %11
 .[B,D]6 F6 | x12 | z6 C6 | z2[K:bass] G,2 F,2[K:treble] z2 G,2 A,2 | x12 | x12 | x12 | x12 | %19
 [B,D]2 F2 E2 F4 F2 | x12 | x12 | z2 B,2 G,2 z2 B,2 G,2 |[M:15/8] z2 G,-G, A,2 B3- B6 | %24
[M:6/4] x12 |[M:5/4] [B,D]2 F2 E2 D4 |] %26

